www/assets/icons/file_copy.svg

<svg xmlns="http://www.w3.org/2000/svg" width="24" height="24" viewBox="0 0 24 24" fill='currentColor'><path d="M16.5 1h-12c-1.1 0-2 .9-2 2v14h2V3h12zm-1 4 6 6v10c0 1.1-.9 2-2 2H8.49c-1.1 0-1.99-.9-1.99-2l.01-14c0-1.1.89-2 1.99-2zm-1 7H20l-5.5-5.5z"/></svg>

<svg width="24" height="24" viewBox="0 0 24 24" xmlns="http://www.w3.org/2000/svg" fill='currentColor'><path d="M16.5 1H4.5C3.4 1 2.5 1.9 2.5 3V17H4.5V3H16.5V1ZM15.5 5L21.5 11V21C21.5 22.1 20.6 23 19.5 23H8.49C7.39 23 6.5 22.1 6.5 21L6.51 7C6.51 5.9 7.4 5 8.5 5H15.5ZM14.5 12H20L14.5 6.5V12Z"/></svg>
